X: 1
T: I Bind Unto Myself Today
C: Words: attributed to St. Patrick circa 372-466; Paraphrased by Cecil F. Alexander, 1889. 
C: Music: 'St. Patricks Breastplate' Charles V. Stanford, 1902.  Setting: The English Hymnal, 1906
C: copyright: public domain.  This score is a part of the Open Hymnal Project, 2006 Revision.
S: Music source: 'The English Hymnal', 1906 Hymn 212.
M: 3/4 % time signature
L: 1/4 % default length
%%staves S1 | {(S2V1 S2V2) | (S3V1 S3V3)}
V: S1 clef=treble 
V: S2V1 clef=treble 
V: S2V2 
V: S3V1 clef=bass 
V: S3V2 
V: S3V3 
K: Bb % key signature
%
%%MIDI program 1 0 % Piano 1
%%MIDI program 2 0 % Piano 1
%%MIDI program 3 0 % Piano 1
%%MIDI program 4 0 % Piano 1
%%MIDI program 5 0 % Piano 1
%%MIDI program 6 0 % Piano 1
%
% 1
[V: S1] [Q:1/4=120] D | G2 G | .(F D) F | .(B d) c/B/ | .(B A) A | .(c A) F | (F A) c | B2 B | A.- A
w: 1.~I bind un- to * my- self * to- * day * The strong * Name of * the Tri- ni- ty, * 
w: 2.~I bind this day * to me * for- * ev- er By pow- er of faith, * Christ's in- car- na- tion; 
w: 3.~I bind un- to * my- self * the * pow- er Of the * great love * of cher- u- bim; * 
w: 4.~I bind un- to * my- self * to- * day * The vir- * tues of * the star lit heav- en, 
w: 5.~I bind un- to * my- self * to- * day * The pow- er of God * to hold and lead, * 
[V: S2V1]  D | G2 G | F D F | (B d) c/B/ | (B A) A | (c A) F | (F A) c | B2 B | A2
[V: S2V2]  D | [B,3D3-] | [A,3D3] | [D2F2] [EG] | [C2F2] [CF] | [C3F3] | [C2F2] [CE] | F2 E/D/ | [C2F2]
[V: S3V1]  D, | [D,3-G,3] | [D,3F,3] | F,2 E, | F,3 | [F,3A,3] | [F,2A,2] [C,G,] | [D,2F,2] [E,B,] | F,2
[V: S3V3]  D, | G,, B,, G,, | D,,2 D, | B,,2 E, | F,3 | F,,3 | x3 | x3 | F,2
% 9
%%staves S1 | {(S2V1 S2V2) | (S3V1 S3V2 S3V3)}
[V: S1]  d | (G3/2 A/) B/G/ | (F D) B, | B2 F | G A B/c/ | d2 c/d/ | (B G) A | G2 G |["1" G2 :|["2-9" G.- G
w: By in- * vo- * ca- * tion of the same * The * Three in * One * and One in Three.  *  *
w: His bap- * tism * in * the Jor- dan riv- er, His * death on * Cross * for my sal- * va- tion; 
w: The sweet * "Well * done" * in judg- ment ho- ur, The * ser- vice * of * the ser- a- * phim, * 
w: The glor- * ious * sun's * life giv- ing ray, * The * white- ness * of * the moon at * ev- en, 
w: His eye * to * watch, * His might to stay, * His * ear to * hear- * ken to my * need. * 
[V: S2V1]  d | (G3/2 A/ B/G/) | (F D) B, | B2 F | G A B/c/ | d2 c/d/ | (B G) A | G3- | G2 :| G2
[V: S2V2]  [DF] | [E2G2] [B,E] | [B,2D2] B, | [B,2D2] [B,F] | B, [DF] D/F/ | [D2F2] F | F E F | D2 E | D2 :| D2
[V: S3V1]  [F,B,] | B,2 G, | F,2 F, | G,2 F, | E, F, G,/A,/ | B,2 [F,A,] | [F,B,] [G,B,] [A,D] | B,2 C | B,2 :| B,2
% [V: S3V2]  x | x3 | x3 | x3 | x3 | x3 | x3 | G,3- | G,2 :| G,2 
[V: S3V3]  B,, | E,3 & (E, E,,) G,, | B,,2 [B,,D,] | [G,,2D,2] D, | E, D, G,/F,/ | [B,,2F,2] F,, | D,, E,, D,, | G,,2 C, & G,3- | [G,2G,,2] :| [G,2G,,2]
% 17
%%staves S1 | {(S2V1 S2V2) | (S3V1 S3V3)}
[V: S1]  F | B2 B | B2 c/d/ | c2 =B | c.- c d | G2 G | (F A) c | B2 B | A.- A
w: 2.~His burst- ing from the * spic- èd tomb, * His rid- ing up * the heav'n- ly way, * 
w: 3.~Con- fes- sors' faith, A- * pos- tles' word, * The Pa- triarchs' pray- ers, the pro- phets' scrolls, * 
w: 4.~The flash- ing of the * light- ning free, * The whirl- ing wind's * tem- pest- uous shocks, * 
w: 5.~The wis- dom of my * God to teach, * His hand to guide, * His shield to ward; * 
[V: S2V1]  F | B2 B | B2 c/d/ | [E2c2] =B | c2 d | G3 | (F A) c | B2 B | A2
[V: S2V2]  D | F2 [EG] | F2 E/D/ | (E G D) | [E2G2] [DG] | E3 | [C2F2] [CF] | F2 [EG] | [C2F2]
[V: S3V1]  B, | D B, B, | B,2 A,/B,/ | G,2 G, | G,2 [G,_B,] | [G,3B,3] | [F,3A,3] | [F,2B,2] B, | F,2
[V: S3V3]  B,, | B,, D, E, | D,2 C,/B,,/ | (C, E,) G, | C,2 G,, | E,,3 | F,,3 | D,,2 E,, | F,,2
% 25
[V: S1]  D | (G3/2 A/) B/G/ | (F D) B, | B2 F | (G A) B/c/ | d2 c/d/ | (B G) A | G2 G | G.- G |]
w: His com- * ing * at * the day of doom * I * bind un- * to * my- self to- day.  * 
w: All good * deeds * done * un- to the Lord * And * pu- ri- * ty * of vir- gin souls.  * 
w: The sta- * ble * earth, * the deep salt sea * A- * round the * old * e- ter- nal rocks.  * 
w: The word * of * God * to give me speech, * His * heav'n- ly * host * to be my guard.  * 
[V: S2V1]  D | (G3/2 A/) B/G/ | (F D) B, | B2 F | (G A) B/c/ | d2 c/d/ | (B G) A | G3- | G2 |]
[V: S2V2]  D | B,3 | [B,2D2] B, | [B,2D2] F | E F D/F/ | F2 F | D E F | D2 E | D2 |]
[V: S3V1]  x | [E,3G,3E,,3] | F,2 D, | [D,2G,2] B, | B, D B,/A,/ | [F,2B,2] [F,A,] | [G,B,] [G,B,] [D,A,D] | x2 C & G,3 | [D,2G,2B,2] |]
[V: S3V3]  [D,D,,] | x3 | B,,2 B,,/A,,/ | G,,2 D, | (E, D,) G,/F,/ | B,,2 F,/D,/ | (G,, E,,) D,, | [B,2G,,2D,2] C, | G,,2 |]
% 34
W: 6.Against the demon snares of sin,
W: The vice that gives temptation force,
W: The natural lusts that war within,
W: The hostile men that mar my course;
W: Or few or many, far or nigh,
W: In every place and in all hours,
W: Against their fierce hostility
W: I bind to me these holy powers.
W: 
W: 7.Against all Satan's spells and wiles,
W: Against false words of heresy,
W: Against the knowledge that defiles,
W: Against the heart's idolatry,
W: Against the wizard's evil craft,
W: Against the death wound and the burning,
W: The choking wave, the poisoned shaft,
W: Protect me, Christ, till Thy returning.
W: 
W: 8.Christ be with me, Christ within me,
W: Christ behind me, Christ before me,
W: Christ beside me, Christ to win me,
W: Christ to comfort and restore me.
W: Christ beneath me, Christ above me,
W: Christ in quiet, Christ in danger,
W: Christ in hearts of all that love me,
W: Christ in mouth of friend and stranger.
W: 
W: 9.I bind unto myself the Name,
W: The strong Name of the Trinity,
W: By invocation of the same,
W: The Three in One and One in Three.
W: By Whom all nature hath creation,
W: Eternal Father, Spirit, Word:
W: Praise to the Lord of my salvation,
W: Salvation is of Christ the Lord.
